!!!OTL: 1423. Maedchen, trau den Soldaten nicht!
!!!ARE: Europa, Mitteleuropa, Deutschland, Hessen, Wetterau; Rheinland
!!!SCT: E1423A
!!!TXL: @@DE
!!!YEM: Copyright 1995, estate of Helmut Schaffrath.
**kern	**text
*ICvox	*
!! Mixed meters:  4/4; 2/4
*M4/4	*
*met(c)	*
*k[f#]	*
*G:	*
!LO:TX:a:t=Mäßig.	!
!LO:TX:a:t=Vom Rheinlande und Wetterau 1880-1890.	!
{4d	Ka-
=1	=1
4.g	-thrin-
8a	-chen,
8.bL	trau
16a	.
8bJ	.
8ccq	.
8ee	nur
=2	=2
2dd}	nicht,
{2ee	trau
=3	=3
4.dd	kei'm
8b	Sol-
4cc	-da-
8ddL	-ten
8ccJ	.
=4	=4
2b	nicht;
4r}	.
{8dd	denn
8cc	ſie
=5	=5
*M3/2	*
4b	wer-
4gg	-den
4.ee	dich
8dd	ver-
8ee	-füh-
8dd	-ren,
8cc	dei-
8b}	-ne
=6	=6
{4a	Ehr
8aq	.
4ee	wirſt
4.dd	du
8ee	ver-
8dd	-lie-
8cc	-ren,
(8bL	glaub's
8ccJ)}	.
=7	=7
{4dd	ſi-
8ddL	-cher-
8ccJ	.
4b	-lich!
4r}	.
{2ee^	glaubs
=8	=8
*M4/4	*
*met(c)	*
4dd	ſi-
8ddL	-cher-
8ccJ	.
4b}	-lich!
==	==
!!!AGN: Staende -, Soldaten - Lied, Liebe +++ Taktwechsel nachtraeglich ++++
!!!ONB: ESAC (Essen Associative Code) Database: ERK3
!!!AMT: irregular
!!!AIN: vox
!!!EED: Helmut Schaffrath
!!!EEV: 1.0
!!!GTL: Staendelieder (Berufslieder). 1. Soldaten- und Kriegslieder. Soldatenlieder seit dem 30jaehr. Kriege.
!!!URL-scan: https://rosdok.uni-rostock.de/mcrviewer/recordIdentifier/rosdok_ppn745177999/iview2/phys_0287.iview2?x=-128.77276441889308&y=1621.5710381080862&scale=0.5870222003877485&rotation=0&layout=singlePageLayout
!!!ENC: Anna Maria Matuszewska
!!!EEV: 2024/12/31
*-	*-
